X:1
T:Title
%%score { ( 1 3 ) | ( 2 4 ) }
L:1/8
M:4/4
K:F
V:1 treble nm="Grand Piano"
V:3 treble 
V:2 bass 
V:4 bass 
V:1
 z4 z2[Q:1/4=100] C2 | [A,CF]2 [A,CF]2 [A,CF]2 [A,CF]2 | [CFA]6 [A,C]2 | %3
 [CFA]2 [A,CF]2 [CFA]2 [D^Fc]2 | [DGB]4 z2 [B,D]2 | [B,DG]2 [B,DG]2 [B,DG]2 [B,DG]2 | %6
 [DGB]6 [DGB]2 | [EBe]2 [EBd]2 [EAc]2 [CGB]2 | [CFA]4[K:bass] .F,,2[K:treble] A2 | A6 z2 | A6 z2 | %11
 z ecG A2 =B2 | [CEc]4 z2 c2 | [Ac]2 [Af]2 [_Ae]2 d2 | [Ac]2 [GB]2 A2 F2 | d2 G2 G2 F2 | %16
 E2 D2 C2 [Gc]2 | [Fc]2 [Af]2 [Ae]2 [_Ad]2 | g2 e2 c2 A2 | G2 e2 e2 d2 | [CEc]4 z2 c2 | %21
 c2 c2 c2 [Gc]2 | [Ec]2 c-[A,Fc] [Ec]2 c2 | c2 B2 G2 E2 | C2 ED C2 C2 | %25
 [A,CF]2 [A,CF]2 [A,CF]2 [A,CF]2 | [CFA]6 [A,C]2 | [CFA]2 A,2- [A,CFA]2 [D^Fc]2 | %28
 [DGB]4 z2 [B,D]2 | [B,DG]2 [B,DG]2 [B,DG]2 [B,DG]2 | [DGB]6 [DGB]2 | [EBe]2 [EBd]2 [EAc]2 [CGB]2 | %32
 [CFA]4[K:bass] .F,,2[K:treble] A2 | A6 z2 | A6 z2 | c2 c2 E2 E2 |[M:9/8] F8- F |] %37
V:2
 z4 z2 .C,2 | .F,2 .C,2 .A,,>E .F,,>G | .F,2 .C,2 .A,,2 .F,,2 | .F,>G .C,>G .A,,2 .D,2 | %4
 .G,2 .D,2 .B,,2 .G,,2 | .G,2 .D,2 .B,,>^F .G,,>[K:treble]A | %6
 .G,2[K:bass] .D,2 .B,,>A .G,,>[K:treble]c | .C,2 .C,2 .D,2 .E,2 | .F,2 .C,2 z4 | %9
 z2 [^C,A,]>[C,A,] [A,^C]2 z2 | z2 [D,D]>[F,D] [A,D]A,A,_A, | G,2 [G,CE]2 [G,=B,F]2 [G,DF]2 | %12
 C,4 z2[K:treble] B2 | [F,C]4 z2 _A2 | F,2 E,2[K:treble] [F,F]2 [A,C]2 | %15
 F2 F2 [=B,DF]2[K:bass] [G,B,D]2 | G,2- [D,G,-=B,]2 [E,G,]2 [E,_B,]2 | %17
 [F,A,]2 [F,C]2[K:treble] [F,F]2 [F,F]2 | [G,EG]2 E2 C2[K:bass] [^F,C_E]2 | %19
 [G,CE]2[K:treble] [G,CG]2 [G,=B,G]2 [G,B,F]2 | C,4 z2 C2 | C2 [B,CE]2 [G,B,E]2 [E,B,]2 | %22
 [D,G,]2 .[C,B,]2 [C,G,]2 C2 | C2 B,2 G,2 E,2 | C,2 E,D, C,2 .C,2 | .F,2 .C,2 .A,,>E .F,,>G | %26
 .F,2 .C,2 .A,,2 .F,,2 | .F,>G .C,>G .A,,2 .D,2 | .G,2 .D,2 .B,,2 .G,,2 | %29
 .G,2 .D,2 .B,,>^F .G,,>[K:treble]A | .G,2[K:bass] .D,2 .B,,>A .G,,>[K:treble]c | %31
 .C,2 .C,2 .D,2 .E,2 | .F,2 .C,2 z4 | z2 [^C,A,]>[E,A,] [A,^C]2 z2 | z2 [D,D]>[F,D] [A,D]A,A,B, | %35
 C2 C2 [C,B,C]2 [C,B,C]2 |[M:9/8] [F,A,C]8- [F,A,C] |] %37
V:3
 x8 | x8 | x8 | x8 | x8 | x8 | x8 | x8 | x4[K:bass] x2[K:treble] x2 | z2 G>G G2 A2 | z2 F>F FAA_A | %11
 G2 z2 z4 | x8 | x8 | C6 z2 | x8 | x8 | x8 | x8 | x8 | x8 | x8 | z2 .G2 z4 | x8 | x8 | x8 | x8 | %27
 z2 [CF]2 z4 | x8 | x8 | x8 | x8 | x4[K:bass] x2[K:treble] x2 | z2 G>G G2 A2 | z2 F>F FAAB | x8 | %36
[M:9/8] x9 |] %37
V:4
 x8 | x8 | x8 | x8 | x8 | x15/2[K:treble] x/ | x2[K:bass] x11/2[K:treble] x/ | x8 | x8 | x8 | x8 | %11
 x8 | x6[K:treble] x2 | z4 [F,=B,]4 | x4[K:treble] x4 | [B,D]4 z4[K:bass] | [C,C]2 z2 z4 | %17
 x4[K:treble] x4 | x6[K:bass] x2 | x2[K:treble] x6 | x8 | x8 | x8 | x8 | x8 | x8 | x8 | x8 | x8 | %29
 x15/2[K:treble] x/ | x2[K:bass] x11/2[K:treble] x/ | x8 | x8 | x8 | x8 | x8 |[M:9/8] x9 |] %37

